packages/vibrant-icons/assets/icons/ChevronDownCircle/Regular.svg

<svg width="24" height="24" viewBox="0 0 24 24" fill="none" xmlns="http://www.w3.org/2000/svg">
<path d="M6.0414 10.4143C5.96326 10.4924 5.96326 10.6191 6.0414 10.6972L11.8698 16.5236C11.9479 16.6016 12.0745 16.6016 12.1526 16.5236L17.9813 10.697C18.0594 10.6189 18.0594 10.4923 17.9813 10.4141L16.8082 9.24144C16.7301 9.16337 16.6035 9.16337 16.5254 9.24144L12.0113 13.7537L7.49746 9.24145C7.41936 9.16337 7.29277 9.16337 7.21467 9.24145L6.0414 10.4143Z" fill="#0C0C0C"/>
<path fill-rule="evenodd" clip-rule="evenodd" d="M11.9999 23.1004C18.1304 23.1004 23.0999 18.1309 23.0999 12.0004C23.0999 5.8699 18.1304 0.899902 11.9999 0.899902C5.8694 0.899902 0.899902 5.8694 0.899902 11.9999C0.899902 18.1304 5.8694 23.1004 11.9999 23.1004ZM11.9999 3.1004C16.9074 3.1004 20.8999 7.0929 20.8999 12.0004C20.8999 16.9079 16.9074 20.8999 11.9999 20.8999C7.0924 20.8999 3.0999 16.9074 3.0999 11.9999C3.0999 7.0924 7.0924 3.1004 11.9999 3.1004Z" fill="#0C0C0C"/>
</svg>

<svg xmlns="http://www.w3.org/2000/svg" width="24" height="24" fill="none"><path fill="#0C0C0C" d="M6.041 10.414a.2.2 0 0 0 0 .283l5.829 5.827a.2.2 0 0 0 .283 0l5.828-5.827a.2.2 0 0 0 0-.283l-1.173-1.173a.2.2 0 0 0-.283 0l-4.514 4.513L7.497 9.24a.2.2 0 0 0-.282 0z"/><path fill="#0C0C0C" fill-rule="evenodd" d="M12 23.1c6.13 0 11.1-4.97 11.1-11.1S18.13.9 12 .9.9 5.87.9 12 5.87 23.1 12 23.1m0-20c4.907 0 8.9 3.993 8.9 8.9 0 4.908-3.993 8.9-8.9 8.9-4.908 0-8.9-3.993-8.9-8.9 0-4.908 3.992-8.9 8.9-8.9" clip-rule="evenodd"/></svg>
